styles/3/Numix/48/places/blue-folder-music.svg

<?xml version="1.0" encoding="UTF-8" standalone="no"?>
<!-- Created with Inkscape (http://www.inkscape.org/) -->

<svg
   xmlns:dc="http://purl.org/dc/elements/1.1/"
   xmlns:cc="http://creativecommons.org/ns#"
   xmlns:rdf="http://www.w3.org/1999/02/22-rdf-syntax-ns#"
   xmlns:svg="http://www.w3.org/2000/svg"
   xmlns="http://www.w3.org/2000/svg"
   xmlns:sodipodi="http://sodipodi.sourceforge.net/DTD/sodipodi-0.dtd"
   xmlns:inkscape="http://www.inkscape.org/namespaces/inkscape"
   width="48"
   height="48"
   id="svg2"
   version="1.1"
   inkscape:version="0.91 r"
   sodipodi:docname="blue-folder-music.svg"
   inkscape:export-filename="/home/me4oslav/Desktop/folder.png"
   inkscape:export-xdpi="270"
   inkscape:export-ydpi="270">
  <defs
     id="defs4" />
  <sodipodi:namedview
     id="base"
     pagecolor="#ffffff"
     bordercolor="#666666"
     borderopacity="1.0"
     inkscape:pageopacity="0.0"
     inkscape:pageshadow="2"
     inkscape:zoom="9.9407525"
     inkscape:cx="9.6178982"
     inkscape:cy="22.92046"
     inkscape:document-units="px"
     inkscape:current-layer="layer1"
     showgrid="true"
     inkscape:window-width="1280"
     inkscape:window-height="998"
     inkscape:window-x="0"
     inkscape:window-y="0"
     inkscape:window-maximized="1"
     showguides="true"
     inkscape:guide-bbox="true">
    <inkscape:grid
       type="xygrid"
       id="grid2985"
       empspacing="5"
       visible="true"
       enabled="true"
       snapvisiblegridlinesonly="true" />
  </sodipodi:namedview>
  <metadata
     id="metadata7">
    <rdf:RDF>
      <cc:Work
         rdf:about="">
        <dc:format>image/svg+xml</dc:format>
        <dc:type
           rdf:resource="http://purl.org/dc/dcmitype/StillImage" />
        <dc:title />
      </cc:Work>
    </rdf:RDF>
  </metadata>
  <g
     inkscape:label="Layer 1"
     inkscape:groupmode="layer"
     id="layer1"
     transform="translate(0,-1004.3622)">
    <rect
       style="fill:#1976d2;fill-opacity:1;stroke:none"
       id="rect3757"
       width="38"
       height="15"
       x="5"
       y="1014.3622" />
    <path
       style="fill:#1976d2;fill-opacity:1;stroke:none"
       d="m 10,1016.3622 c 0,-2 0,-4 2,-4 l 7,0 c 2,0 2,2 2,4 z"
       id="path3759"
       inkscape:connector-curvature="0"
       sodipodi:nodetypes="ccccc" />
    <path
       style="fill:#95989f;fill-opacity:1;stroke:none"
       d="m 9,1017.3622 31,0 0,7 -31,0 z"
       id="path3765"
       inkscape:connector-curvature="0" />
    <rect
       y="1016.3622"
       x="11"
       height="20"
       width="28"
       id="rect3763"
       style="fill:#d8d8da;fill-opacity:1;stroke:none" />
    <rect
       style="fill:#f9f9f9;fill-opacity:1;stroke:none"
       id="rect3761"
       width="28"
       height="20"
       x="10"
       y="1019.3622" />
    <path
       style="fill:#42a5f5;fill-opacity:1;stroke:none"
       d="m 2,1020.3622 44,0 -4,24 -37,0 z"
       id="path2987"
       inkscape:connector-curvature="0"
       sodipodi:nodetypes="ccccc" />
    <path
       style="opacity:1.0;fill:#2a74b9;fill-opacity:1;stroke:none"
       d="M 22 20 C 20.892 20 20 20.892 20 22 L 20 23 L 20 30.1875 C 19.683528 30.073979 19.355533 30 19 30 C 17.343146 30 16 31.343146 16 33 C 16 34.656854 17.343146 36 19 36 C 20.656854 36 22 34.656854 22 33 L 22 25 L 30 25 L 30 30.1875 C 29.683528 30.073979 29.355533 30 29 30 C 27.343146 30 26 31.343146 26 33 C 26 34.656854 27.343146 36 29 36 C 30.656854 36 32 34.656854 32 33 L 32 23 L 32 22 C 32 20.892 31.108 20 30 20 L 22 20 z "
       transform="translate(0,1004.3622)"
       id="path3001" />
  </g>
</svg>

<!-- Created with Inkscape (http://www.inkscape.org/) -->
<svg xmlns="http://www.w3.org/2000/svg" viewBox="0 0 48 48">
 <g transform="translate(0,-1004.3622)">
  <rect width="38" height="15" x="5" y="1014.36" style="fill:#1976d2;fill-opacity:1;stroke:none"/>
  <path d="m 10 1016.36 c 0 -2 0 -4 2 -4 l 7 0 c 2 0 2 2 2 4 z" style="fill:#1976d2;fill-opacity:1;stroke:none"/>
  <path d="m 9 1017.36 31 0 0 7 -31 0 z" style="fill:#95989f;fill-opacity:1;stroke:none"/>
  <rect y="1016.36" x="11" height="20" width="28" style="fill:#d8d8da;fill-opacity:1;stroke:none"/>
  <rect width="28" height="20" x="10" y="1019.36" style="fill:#f9f9f9;fill-opacity:1;stroke:none"/>
  <path d="m 2 1020.36 44 0 -4 24 -37 0 z" style="fill:#42a5f5;fill-opacity:1;stroke:none"/>
  <path d="m 22 20 c -1.108 0 -2 0.892 -2 2 l 0 1 l 0 7.188 c -0.316 -0.114 -0.644 -0.188 -1 -0.188 c -1.657 0 -3 1.343 -3 3 c 0 1.657 1.343 3 3 3 c 1.657 0 3 -1.343 3 -3 l 0 -8 l 8 0 l 0 5.188 c -0.316 -0.114 -0.644 -0.188 -1 -0.188 c -1.657 0 -3 1.343 -3 3 c 0 1.657 1.343 3 3 3 c 1.657 0 3 -1.343 3 -3 l 0 -10 l 0 -1 c 0 -1.108 -0.892 -2 -2 -2 l -8 0 z" transform="translate(0,1004.3622)" style="fill:#2a74b9;opacity:1;fill-opacity:1;stroke:none"/>
 </g>
</svg>
